.storybook/public/story-assets/logo-svg_12-12_tablet_light.svg

<svg width="600" height="160" viewBox="0 0 600 160" fill="none" xmlns="http://www.w3.org/2000/svg">
<path fill-rule="evenodd" clip-rule="evenodd" d="M76.4604 31.5H68.4604V50.5H76.4604V31.5ZM78.4604 50.5H107.96H108.96H147.958C147.437 39.9189 138.693 31.5 127.983 31.5H78.4604V50.5ZM147.958 52.5H108.96H107.96H78.4604V71.5H127.983C138.693 71.5 147.437 63.0811 147.958 52.5ZM76.4604 71.5V52.5H68.4604V71.5H76.4604ZM66.4604 52.5H65.9604H28C28.521 63.0811 37.2651 71.5 47.9754 71.5H66.4604V52.5ZM66.4604 50.5V31.5H47.9754C37.2651 31.5 28.521 39.9189 28 50.5H65.9604H66.4604Z" fill="#262626"/>
<path fill-rule="evenodd" clip-rule="evenodd" d="M230.652 31.5H219.958C215.54 31.5 211.958 35.0817 211.958 39.5V50.37H230.652V31.5ZM211.958 52.37V63.5C211.958 67.9183 215.54 71.5 219.958 71.5H230.652V71.4515V52.37H211.958ZM232.652 71.5H243.958C248.376 71.5 251.958 67.9183 251.958 63.5V52.37H232.652V71.4515V71.5ZM251.958 50.37V39.5C251.958 35.0817 248.376 31.5 243.958 31.5H232.652V50.37H251.958Z" fill="#262626"/>
<path fill-rule="evenodd" clip-rule="evenodd" d="M354.563 31.5H337.39L345.977 40.0862L354.563 31.5ZM334.562 31.5H323.958C319.54 31.5 315.958 35.0817 315.958 39.5V63.5C315.958 65.3536 316.588 67.0599 317.646 68.4163L344.562 41.5004L334.562 31.5ZM319.063 69.8281C320.416 70.8762 322.114 71.5 323.958 71.5H374.562L345.977 42.9146L319.063 69.8281ZM377.39 71.5H408.032C412.451 71.5 416.032 67.9183 416.032 63.5V39.5C416.032 35.0817 412.451 31.5 408.032 31.5H357.391L347.391 41.5004L377.39 71.5Z" fill="#262626"/>
<path fill-rule="evenodd" clip-rule="evenodd" d="M529.995 34.2229C529.821 33.651 529.58 33.1391 529.274 32.6873C528.975 32.2283 528.613 31.8365 528.188 31.5117C527.771 31.1869 527.29 30.9433 526.747 30.7809C526.204 30.6115 525.613 30.5267 524.972 30.5267C523.824 30.5267 522.8 30.8198 521.902 31.4058C521.004 31.9918 520.298 32.8532 519.783 33.9899C519.274 35.1196 519.02 36.4964 519.02 38.1204C519.02 39.7584 519.274 41.1458 519.783 42.2825C520.291 43.4193 520.997 44.2842 521.902 44.8773C522.807 45.4633 523.858 45.7563 525.056 45.7563C526.142 45.7563 527.081 45.5445 527.875 45.1209C528.675 44.6972 529.292 44.0971 529.723 43.3204C530.136 42.5711 530.351 41.6991 530.369 40.7045H525.442V37.6332H534.119V40.2385C534.119 42.0954 533.729 43.7017 532.95 45.0573C532.17 46.413 531.098 47.4579 529.734 48.1922C528.369 48.9195 526.803 49.2831 525.035 49.2831C523.065 49.2831 521.335 48.8347 519.845 47.938C518.363 47.0343 517.204 45.7528 516.368 44.0936C515.54 42.4273 515.126 40.4503 515.126 38.1627C515.126 36.4117 515.369 34.8478 515.857 33.471C516.351 32.0942 517.04 30.9257 517.924 29.9654C518.808 28.9981 519.845 28.2638 521.036 27.7625C522.226 27.2542 523.521 27 524.92 27C526.103 27 527.207 27.1765 528.23 27.5295C529.253 27.8755 530.162 28.3697 530.955 29.0123C531.756 29.6548 532.414 30.4173 532.929 31.2999C533.444 32.1824 533.781 33.1568 533.942 34.2229H529.995ZM480.033 27.2965V48.9865H483.907V41.6577H488C489.649 41.6577 491.038 41.3506 492.166 40.7363C493.294 40.115 494.146 39.2642 494.724 38.1839C495.302 37.1036 495.591 35.868 495.591 34.4771C495.591 33.1003 495.302 31.8718 494.724 30.7915C494.153 29.7042 493.308 28.8499 492.187 28.2285C491.073 27.6072 489.695 27.2965 488.052 27.2965H480.033ZM483.907 38.4275H487.478C488.438 38.4275 489.225 38.258 489.837 37.9191C490.45 37.5802 490.902 37.1142 491.195 36.5211C491.494 35.9281 491.644 35.2467 491.644 34.4771C491.644 33.7075 491.494 33.0297 491.195 32.4437C490.902 31.8577 490.447 31.4022 489.827 31.0775C489.214 30.7456 488.424 30.5797 487.457 30.5797H483.907V38.4275ZM494.595 48.9865H498.73L500.499 43.6382H508.538L510.31 48.9865H514.445L506.906 27.2965H502.124L494.595 48.9865ZM507.493 40.4821L504.599 31.7447H504.432L501.542 40.4821H507.493ZM537.277 27.2965V48.9865H551.269V45.6928H541.151V39.7725H550.465V36.4788H541.151V30.5903H551.185V27.2965H537.277ZM543.428 53.7169C544.452 53.724 545.447 53.9076 546.415 54.2677C547.389 54.6207 548.266 55.1996 549.046 56.0045C549.826 56.8024 550.445 57.8721 550.905 59.2136C551.364 60.5551 551.594 62.2143 551.594 64.1912C551.601 66.0552 551.406 67.7215 551.009 69.1901C550.619 70.6516 550.059 71.8872 549.328 72.8969C548.597 73.9066 547.716 74.6761 546.686 75.2057C545.656 75.7352 544.497 76 543.209 76C541.859 76 540.661 75.7317 539.617 75.1951C538.58 74.6585 537.741 73.9242 537.101 72.9922C536.46 72.0602 536.067 70.9941 535.921 69.7938H539.732C539.927 70.6552 540.324 71.34 540.922 71.8484C541.528 72.3497 542.29 72.6003 543.209 72.6003C544.692 72.6003 545.833 71.9473 546.634 70.6411C547.434 69.3349 547.835 67.5203 547.835 65.1974H547.689C547.347 65.8187 546.905 66.3553 546.362 66.8072C545.819 67.252 545.203 67.5944 544.514 67.8345C543.832 68.0745 543.108 68.1946 542.342 68.1946C541.089 68.1946 539.962 67.891 538.959 67.2838C537.964 66.6766 537.174 65.8434 536.589 64.7843C536.011 63.7252 535.719 62.5144 535.712 61.1517C535.712 59.7396 536.032 58.4722 536.673 57.3496C537.32 56.2199 538.221 55.3303 539.377 54.6807C540.532 54.0241 541.883 53.7028 543.428 53.7169ZM543.439 56.8942C542.687 56.8942 542.008 57.0813 541.403 57.4555C540.804 57.8226 540.331 58.3239 539.983 58.9594C539.641 59.5878 539.471 60.2903 539.471 61.067C539.478 61.8366 539.648 62.5355 539.983 63.1639C540.324 63.7923 540.787 64.2901 541.371 64.6572C541.963 65.0244 542.638 65.208 543.397 65.208C543.961 65.208 544.486 65.0985 544.974 64.8796C545.461 64.6608 545.886 64.3572 546.248 63.9688C546.616 63.5734 546.902 63.1251 547.104 62.6238C547.313 62.1225 547.414 61.593 547.407 61.0352C547.407 60.2938 547.233 59.609 546.884 58.9806C546.543 58.3522 546.074 57.8473 545.475 57.4661C544.883 57.0848 544.204 56.8942 543.439 56.8942ZM533.254 61.3317H529.348C529.237 60.6822 529.032 60.1067 528.732 59.6054C528.433 59.0971 528.061 58.6664 527.615 58.3133C527.17 57.9603 526.661 57.6955 526.091 57.519C525.527 57.3355 524.918 57.2437 524.263 57.2437C523.101 57.2437 522.071 57.5402 521.173 58.1333C520.275 58.7193 519.572 59.5807 519.063 60.7175C518.555 61.8471 518.301 63.2275 518.301 64.8585C518.301 66.5177 518.555 67.9157 519.063 69.0524C519.579 70.1821 520.282 71.0364 521.173 71.6154C522.071 72.1873 523.097 72.4733 524.253 72.4733C524.893 72.4733 525.492 72.3885 526.049 72.2191C526.613 72.0426 527.117 71.7849 527.563 71.446C528.015 71.107 528.395 70.6905 528.701 70.1962C529.014 69.702 529.23 69.1372 529.348 68.5017L533.254 68.5229C533.107 69.5537 532.791 70.521 532.303 71.4248C531.823 72.3285 531.193 73.1264 530.414 73.8183C529.634 74.5032 528.722 75.0398 527.678 75.4281C526.634 75.8094 525.475 76 524.201 76C522.321 76 520.644 75.5587 519.168 74.6761C517.692 73.7936 516.53 72.5192 515.68 70.8529C514.831 69.1866 514.406 67.1884 514.406 64.8585C514.406 62.5214 514.835 60.5233 515.691 58.8641C516.547 57.1978 517.713 55.9233 519.189 55.0408C520.664 54.1582 522.335 53.7169 524.201 53.7169C525.391 53.7169 526.498 53.8864 527.521 54.2253C528.544 54.5642 529.456 55.062 530.257 55.7186C531.057 56.3682 531.715 57.166 532.23 58.1121C532.752 59.0512 533.094 60.1244 533.254 61.3317ZM562.711 54.0135H554.692V75.7035H558.565V67.7603H562.507L566.71 75.7035H571.033L566.407 67.1165C566.547 67.0595 566.682 66.9988 566.814 66.9343C567.942 66.3765 568.795 65.5892 569.372 64.5725C569.957 63.5487 570.25 62.3414 570.25 60.9505C570.25 59.5666 569.961 58.3557 569.383 57.3178C568.812 56.2728 567.966 55.4609 566.846 54.8819C565.732 54.303 564.354 54.0135 562.711 54.0135ZM558.565 64.4984H562.136C563.097 64.4984 563.884 64.3642 564.496 64.0959C565.109 63.8206 565.561 63.4216 565.854 62.8992C566.153 62.3696 566.303 61.7201 566.303 60.9505C566.303 60.1809 566.153 59.5242 565.854 58.9806C565.554 58.4298 565.098 58.0133 564.486 57.7308C563.873 57.4414 563.083 57.2966 562.116 57.2966H558.565V64.4984ZM554.496 27.24H570.423V48.9864H554.496V27.24ZM511.615 53.9571H480.067V75.7035H511.615V53.9571Z" fill="#262626"/>
<path fill-rule="evenodd" clip-rule="evenodd" d="M173.191 93H144.479C133.812 93 125.096 101.35 124.51 111.87H173.191V93ZM124.498 113.87C124.953 124.512 133.725 133 144.479 133H173.191V132.951V113.87H124.498ZM175.191 133H204.553C215.308 133 224.079 124.512 224.535 113.87H224.432H175.191V132.951V133ZM224.522 111.87C223.936 101.35 215.22 93 204.553 93H175.191V111.87H224.432H224.522Z" fill="#262626"/>
<path fill-rule="evenodd" clip-rule="evenodd" d="M295.035 93.1404C291.333 93.8425 288.535 97.0944 288.535 101V112H295.035V93.1404ZM288.535 114V125C288.535 128.906 291.333 132.157 295.035 132.86V114H288.535ZM297.035 133H320.535C324.953 133 328.535 129.418 328.535 125V114H297.035V133ZM328.535 112V101C328.535 96.5817 324.953 93 320.535 93H297.035V112H328.535Z" fill="#262626"/>
<path fill-rule="evenodd" clip-rule="evenodd" d="M355.035 93H338.535C334.116 93 330.535 96.5817 330.535 101V102H355.035V93ZM330.535 104V125C330.535 129.418 334.116 133 338.535 133H355.035V104H330.535ZM357.035 133H362.535C366.953 133 370.535 129.418 370.535 125V104H357.035V133ZM370.535 102V101C370.535 96.5817 366.953 93 362.535 93H357.035V102H370.535Z" fill="#262626"/>
<path fill-rule="evenodd" clip-rule="evenodd" d="M439.703 99.5825C436.491 103.131 434.535 107.837 434.535 113C434.535 118.097 436.441 122.749 439.58 126.281L452.991 112.87L439.703 99.5825ZM441.117 98.1683L454.405 111.456L467.815 98.0455C464.283 94.9066 459.632 93 454.535 93C449.372 93 444.666 94.9564 441.117 98.1683ZM469.242 99.4468L455.819 112.87L469.312 126.363L469.366 126.417C472.578 122.869 474.535 118.163 474.535 113C474.535 107.771 472.528 103.01 469.242 99.4468ZM467.952 127.832L467.897 127.777L454.405 114.284L440.982 127.708C444.545 130.993 449.306 133 454.535 133C459.698 133 464.404 131.044 467.952 127.832Z" fill="#262626"/>
</svg>

<svg xmlns="http://www.w3.org/2000/svg" width="600" height="160" fill="none"><path fill="#262626" fill-rule="evenodd" d="M76.46 31.5h-8v19h8zm2 19h69.49799999999999c-.521-10.581-9.265-19-19.975-19H78.46zm69.498 2H78.46v19h49.523c10.71 0 19.454-8.419 19.975-19m-71.498 19v-19h-8v19zm-10-19H28c.521 10.581 9.265 19 19.975 19H66.46zm0-2v-19H47.975c-10.71 0-19.454 8.419-19.975 19h38.46M230.652 31.5h-10.694a8 8 0 0 0-8 8v10.87h18.694zm-18.694 20.87V63.5a8 8 0 0 0 8 8h10.694V52.37zm20.694 19.13h11.306a8 8 0 0 0 8-8V52.37h-19.306V71.5m19.306-21.13V39.5a8 8 0 0 0-8-8h-11.306v18.87zM354.563 31.5H337.39l8.587 8.586zm-20.001 0h-10.604a8 8 0 0 0-8 8v24c0 1.854.63 3.56 1.688 4.916L344.562 41.5zm-15.499 38.328a7.97 7.97 0 0 0 4.895 1.672h50.604l-28.585-28.585zM377.39 71.5h30.642a8 8 0 0 0 8-8v-24a8 8 0 0 0-8-8h-50.641l-10 10zM529.995 34.223a5.7 5.7 0 0 0-.721-1.536 4.7 4.7 0 0 0-1.086-1.175 4.4 4.4 0 0 0-1.441-.731 6 6 0 0 0-1.775-.254q-1.723 0-3.07.879t-2.119 2.584q-.763 1.694-.763 4.13 0 2.457.763 4.163.762 1.704 2.119 2.594 1.357.88 3.154.88 1.629 0 2.819-.636a4.44 4.44 0 0 0 1.848-1.8q.62-1.125.646-2.616h-4.927v-3.072h8.677v2.605q0 2.786-1.169 4.82a8.05 8.05 0 0 1-3.216 3.134q-2.047 1.09-4.699 1.091-2.955 0-5.19-1.345-2.223-1.356-3.477-3.844-1.242-2.5-1.242-5.931 0-2.626.731-4.692.741-2.065 2.067-3.506a8.8 8.8 0 0 1 3.112-2.203Q522.821 27 524.92 27q1.775 0 3.31.53a8.7 8.7 0 0 1 2.725 1.482 8.2 8.2 0 0 1 1.974 2.288 8.2 8.2 0 0 1 1.013 2.923zm-49.962-6.926v21.69h3.874v-7.33H488q2.474 0 4.166-.92 1.692-.933 2.558-2.553.867-1.62.867-3.707 0-2.065-.867-3.685-.856-1.632-2.537-2.564-1.67-.93-4.135-.931zm3.874 11.13h3.571q1.44 0 2.359-.508a3.2 3.2 0 0 0 1.358-1.398q.449-.89.449-2.044 0-1.155-.449-2.033-.439-.88-1.368-1.367-.92-.497-2.37-.497h-3.55zm10.688 10.56h4.135l1.769-5.349h8.039l1.772 5.349h4.135l-7.539-21.69h-4.782zm12.898-8.505-2.894-8.737h-.167l-2.89 8.737zm29.784-13.185v21.69h13.992v-3.294h-10.118v-5.92h9.314v-3.294h-9.314V30.59h10.034v-3.293zm6.151 26.42a8.7 8.7 0 0 1 2.987.55q1.461.531 2.631 1.737 1.17 1.197 1.859 3.21t.689 4.977q.01 2.796-.585 5-.585 2.19-1.681 3.706-1.097 1.515-2.642 2.309t-3.477.794q-2.026 0-3.592-.805a6.8 6.8 0 0 1-2.516-2.203q-.961-1.398-1.18-3.198h3.811q.293 1.292 1.19 2.054.909.752 2.287.752 2.224 0 3.425-1.959t1.201-5.444h-.146a5.6 5.6 0 0 1-1.327 1.61 6 6 0 0 1-1.848 1.028q-1.023.36-2.172.36-1.879 0-3.383-.911a6.6 6.6 0 0 1-2.37-2.5q-.867-1.589-.877-3.632 0-2.119.961-3.802a7 7 0 0 1 2.704-2.67q1.733-.984 4.051-.963m.011 3.177q-1.128 0-2.036.562a3.96 3.96 0 0 0-1.42 1.503q-.513.943-.512 2.108.01 1.154.512 2.097a3.96 3.96 0 0 0 1.388 1.493q.888.55 2.026.551.846 0 1.577-.328a3.9 3.9 0 0 0 1.274-.911 4.3 4.3 0 0 0 .856-1.345q.313-.753.303-1.589 0-1.112-.523-2.054a4.06 4.06 0 0 0-1.409-1.515q-.888-.572-2.036-.572m-10.185 4.438h-3.906a5 5 0 0 0-.616-1.727 4.6 4.6 0 0 0-1.117-1.292 4.6 4.6 0 0 0-1.524-.794 5.9 5.9 0 0 0-1.828-.275q-1.743 0-3.09.89-1.347.878-2.11 2.584-.762 1.695-.762 4.14 0 2.49.762 4.194.774 1.695 2.11 2.563 1.347.858 3.08.858.96 0 1.796-.254a4.9 4.9 0 0 0 1.514-.773 4.5 4.5 0 0 0 1.138-1.25 4.8 4.8 0 0 0 .647-1.694l3.906.02a8.6 8.6 0 0 1-.951 2.903 8.5 8.5 0 0 1-1.889 2.393 8.7 8.7 0 0 1-2.736 1.61q-1.566.572-3.477.572-2.82 0-5.033-1.324t-3.488-3.823q-1.274-2.5-1.274-5.994 0-3.507 1.285-5.995 1.284-2.499 3.498-3.823 2.213-1.324 5.012-1.324 1.785 0 3.32.508a8.5 8.5 0 0 1 2.736 1.494q1.2.974 1.973 2.393.784 1.409 1.024 3.22m29.457-7.318h-8.019v21.69h3.873V67.76h3.942l4.203 7.944h4.323l-4.626-8.587q.21-.086.407-.183 1.692-.837 2.558-2.361.878-1.537.878-3.622 0-2.076-.867-3.633-.857-1.568-2.537-2.436-1.67-.868-4.135-.868m-4.146 10.484h3.571q1.442 0 2.36-.402.919-.412 1.358-1.197.449-.795.449-1.949 0-1.155-.449-1.97-.45-.825-1.368-1.25-.92-.433-2.37-.433h-3.551zm-4.069-37.258h15.927v21.746h-15.927zm-42.881 26.717h-31.548v21.747h31.548zM173.191 93h-28.712c-10.667 0-19.383 8.35-19.969 18.87h48.681zm-48.693 20.87c.455 10.642 9.227 19.13 19.981 19.13h28.712v-19.13zM175.191 133h29.362c10.755 0 19.526-8.488 19.982-19.13h-49.344V133m49.331-21.13C223.936 101.35 215.22 93 204.553 93h-29.362v18.87h49.331M295.035 93.14a8 8 0 0 0-6.5 7.86v11h6.5zm-6.5 20.86v11a8 8 0 0 0 6.5 7.86V114zm8.5 19h23.5a8 8 0 0 0 8-8v-11h-31.5zm31.5-21v-11a8 8 0 0 0-8-8h-23.5v19zM355.035 93h-16.5a8 8 0 0 0-8 8v1h24.5zm-24.5 11v21a8 8 0 0 0 8 8h16.5v-29zm26.5 29h5.5a8 8 0 0 0 8-8v-21h-13.5zm13.5-31v-1a8 8 0 0 0-8-8h-5.5v9zM439.703 99.583A19.93 19.93 0 0 0 434.535 113c0 5.097 1.906 9.749 5.045 13.281l13.411-13.411zm1.414-1.415 13.288 13.288 13.41-13.41A19.92 19.92 0 0 0 454.535 93a19.93 19.93 0 0 0-13.418 5.168m28.125 1.279-13.423 13.423 13.493 13.493.054.054A19.93 19.93 0 0 0 474.535 113c0-5.229-2.007-9.99-5.293-13.553m-1.29 28.385-.055-.055-13.492-13.493-13.423 13.424A19.93 19.93 0 0 0 454.535 133c5.163 0 9.869-1.956 13.417-5.168" clip-rule="evenodd"/></svg>
